X:1
T:Dan O'Keeffe's
R:slide
M:12/8
L:1/8
K:Edor
|:B2e e2f e2d B2A|B2d dBA B2d dBA|
|B2e e2f e2d B2A|1 def a2f e3 e2d:|2 def a2f e3 efa|]
|:b3 b2a b2a f2e|def a2f def a3|
|b3 b2a b2a f2e|1 def a2f e3 efa:|2 def a2f e3 e2d|]